app/dist/common/images/sei-investment.svg

<svg height="18" width="18" xmlns="http://www.w3.org/2000/svg"><path d="m0 0h18v18h-18z" fill="#08090d"/><path d="m14 6h-1v6h1zm-2 1v-1.02h-4v6.035h4v-1.015h-3v-1.57h2.753v-.862h-2.753v-1.568zm-9.187 4.155.566-.694c.365.43.938.853 1.82.853 1.059 0 1.268-.46 1.268-.907 0-1.552-3.457-.664-3.457-2.85 0-1 .905-1.69 2.112-1.69.925 0 1.65.314 2.174.866l-.574.67c-.461-.52-1.015-.711-1.683-.711-.71 0-1.1.278-1.1.819 0 1.35 3.488.556 3.488 2.847 0 .838-.596 1.773-2.259 1.773-1.052 0-1.845-.4-2.355-.976z" fill="#fff"/></svg>

<!-- by TradingView --><svg width="18" height="18" xmlns="http://www.w3.org/2000/svg"><path fill="#08090D" d="M0 0h18v18H0z"/><path d="M14 6h-1v6h1V6zM12 7V5.98H8v6.035h4V11H9V9.43h2.753v-.862H9V7h3zM2.813 11.155l.566-.694c.365.43.938.853 1.82.853 1.059 0 1.268-.46 1.268-.907 0-1.552-3.457-.664-3.457-2.85 0-1 .905-1.69 2.112-1.69.925 0 1.65.314 2.174.866l-.574.67c-.461-.52-1.015-.711-1.683-.711-.71 0-1.1.278-1.1.819 0 1.35 3.488.556 3.488 2.847 0 .838-.596 1.773-2.259 1.773-1.052 0-1.845-.4-2.355-.976z" fill="#fff"/></svg>
